!!!OTL: Setzt euch, Brueder, in die Runde.
!!!OTL-incipit:SETZT EUCH BRUEDER IN DIE RUNDE
!!!COM: Studentenweise
!!!ARE: Europa, Mitteleuropa, Deutschland
!!!SCT: F0490
!!!TXL: @@DE
!!!YEM: Copyright 1995, estate of Helmut Schaffrath.
**kern	**text
*ICvox	*
*clefG2	*
*M4/4	*
*met(c)	*
*k[b-e-a-]	*
*E-:	*
=1	=1
!LO:TX:a:t=Solo.	!
!LO:TX:a:t=Feierlich.	!
!LO:TX:a:t=P:only the highest voice encoded:problem	!
{4b-/	1._Setʒt
4ee-/	euch,
4.b-/	Brü-
8g	-der,
=2	=2
8b-/L	in
8a-J	.
8fL	die
8gJ	.
8fL	Run-
8e-J	.
4e-}	-de,
=3	=3
{4b-/	Arm
8ee-/L	in
8ccJ	.
4.b-/	Arm
8g	und
=4	=4
8b-/L	Hand
8a-J	.
8fL	in
8gJ	.
4e-	Hand!
4r}	.
=5	=5
{4.f	Fei-
8b-/	-ern
8b-/L	wol-
8aJ	.
8a/L	-len
8ccJ	.
=6	=6
8cc/L	wir
8b-J	.
8b-/L	die
8ddJ	.
8dd/L	Stunde,
8ccJ	.
4cc/}	.
=7	=7
{4.f	die
8b-/	ʒum
8b-/L	treu-
8aJ	.
8a/L	-en
8ccJ	.
=8	=8
8cc/L	Bru-
8b-J	.
8b-/L	-der
8ddJ	.
8dd/L	bun-
8ccJ	.
4cc/}	-de,
=9	=9
{4ee-/	die
4cc/	ʒu
4.ff/	Brüdern
8ee-/	.
=10	=10
4dd/	uns
4cc/	verband.
4b-/;}	.
!LO:TX:a:t=Alle.	!
{8b-/	Schalle,
8b-/	.
=11	=11
4.ee-/	Ju-
8b-/	-bel-
4.ee-/	-lied,
8b-/	und
=12	=12
8a-XL	tö-
8gJ	.
8fL	-ne
8e-J}	.
{8cc/L	Hoch-
8a-J	.
8ee-/L	-ge-
8ccJ	.
=13	=13
4.b-/	-fühl
8g	in
8cc/L	un-
8b-J	.
8a-L	-ſrer
8gJ	.
=14	=14
4gqq	.
2f}	Bruſt,
{4.b-/	denn
8a-	wir
=15	=15
8a-L	ſind
8gJ	.
8fL	ja
8e-J	.
(>4ee-/	Teutſchlands
8dd/)	.
8cc/	.
=16	=16
8cc/L	Söhne,
8b-J	.
4b-/}	.
{8fL	un-
8gJ	.
8a-L	-ſrer
8b-J	.
=17	=17
8cc/L	Wür-
8ddJ	.
8ee-/L	-de
8ffJ	.
4gg/	uns
4ff/	be-
=18	=18
2ee-/	-wußt.
2r}	.
==	==
!!!AGN: Studenten -,  Burschenschafts - Lied
!!!ONB: ESAC (Essen Associative Code) Database: FINK
!!!AMT: simple quadruple
!!!AIN: vox
!!!EED: Helmut Schaffrath
!!!EEV: 1.0
!!!RDF**kern: > = above
!!Text: Strakerian
!!!GTL: Studentenlieder
!!!source: Musikalischer Hausschatz der Deutschen. Eine Sammlung von über 1000 Liedern und Gesängen mit Singstimmen und Klavierbegleitung. Leipzig, Litterarisches Verlags-Haus.
!!!page: 310
!!!URL-scan: https://www.digitale-sammlungen.de/en/view/bsb11144622?page=287
!!!ENC: Anna Maria Matuszewska
!!!EEV: 2024/08/01
*-	*-